breeze-extended-alt/places/32/folder-locked.svg

<?xml version="1.0" encoding="UTF-8" standalone="no"?>
<!-- Created with Inkscape (http://www.inkscape.org/) -->

<svg
   width="32"
   version="1.1"
   height="32"
   viewBox="0 0 32 32"
   id="svg2"
   inkscape:version="1.1.1 (3bf5ae0d25, 2021-09-20, custom)"
   sodipodi:docname="folder.svg"
   xmlns:inkscape="http://www.inkscape.org/namespaces/inkscape"
   xmlns:sodipodi="http://sodipodi.sourceforge.net/DTD/sodipodi-0.dtd"
   xmlns:xlink="http://www.w3.org/1999/xlink"
   xmlns="http://www.w3.org/2000/svg"
   xmlns:svg="http://www.w3.org/2000/svg"
   xmlns:rdf="http://www.w3.org/1999/02/22-rdf-syntax-ns#"
   xmlns:cc="http://creativecommons.org/ns#"
   xmlns:dc="http://purl.org/dc/elements/1.1/">
  <sodipodi:namedview
     pagecolor="#ffffff"
     bordercolor="#666666"
     borderopacity="1"
     objecttolerance="10"
     gridtolerance="10"
     guidetolerance="10"
     inkscape:pageopacity="0"
     inkscape:pageshadow="2"
     inkscape:window-width="1920"
     inkscape:window-height="1007"
     id="namedview17"
     showgrid="true"
     inkscape:zoom="11.313709"
     inkscape:cx="10.960155"
     inkscape:cy="12.020815"
     inkscape:window-x="0"
     inkscape:window-y="0"
     inkscape:window-maximized="1"
     inkscape:current-layer="layer1"
     inkscape:pagecheckerboard="0">
    <inkscape:grid
       type="xygrid"
       id="grid829" />
  </sodipodi:namedview>
  <defs
     id="defs5455">
    <style
       type="text/css"
       id="current-color-scheme">
      .ColorScheme-Text {
        color:#31363b;
      }
      .ColorScheme-Highlight {
        color:#3daee9;
      }
      </style>
    <linearGradient
       inkscape:collect="always"
       id="linearGradient2051">
      <stop
         style="stop-color:#ffffff;stop-opacity:1;"
         offset="0"
         id="stop2047" />
      <stop
         style="stop-color:#ffffff;stop-opacity:0;"
         offset="1"
         id="stop2049" />
    </linearGradient>
    <linearGradient
       inkscape:collect="always"
       id="linearGradient1669">
      <stop
         style="stop-color:#000000;stop-opacity:1;"
         offset="0"
         id="stop1665" />
      <stop
         style="stop-color:#000000;stop-opacity:0;"
         offset="1"
         id="stop1667" />
    </linearGradient>
    <linearGradient
       id="linearGradient4172-7-9">
      <stop
         style="stop-color:#4183d7"
         id="stop4174-9-8" />
      <stop
         offset="1"
         style="stop-color:#5b94df"
         id="stop4176-4-6" />
    </linearGradient>
    <linearGradient
       inkscape:collect="always"
       xlink:href="#linearGradient1669"
       id="linearGradient1671"
       x1="397.57144"
       y1="517.79797"
       x2="397.57144"
       y2="530.79797"
       gradientUnits="userSpaceOnUse" />
    <linearGradient
       inkscape:collect="always"
       xlink:href="#linearGradient2051"
       id="linearGradient2053"
       x1="417.57144"
       y1="522.79797"
       x2="417.57144"
       y2="545.79797"
       gradientUnits="userSpaceOnUse" />
  </defs>
  <metadata
     id="metadata5458">
    <rdf:RDF>
      <cc:Work
         rdf:about="">
        <dc:format>image/svg+xml</dc:format>
        <dc:type
           rdf:resource="http://purl.org/dc/dcmitype/StillImage" />
      </cc:Work>
    </rdf:RDF>
  </metadata>
  <g
     inkscape:label="Capa 1"
     inkscape:groupmode="layer"
     id="layer1"
     transform="translate(-384.57143,-515.798)">
    <path
       style="fill:currentColor;fill-opacity:1;fill-rule:evenodd;stroke:none;stroke-width:1px;stroke-linecap:butt;stroke-linejoin:miter;stroke-opacity:1"
       class="ColorScheme-Highlight"
       d="m 385.57143,517.798 h 12 l 3,4 h 15 v 24 h -30 z"
       id="path4182"
       inkscape:connector-curvature="0"
       sodipodi:nodetypes="ccccccc" />
    <path
       id="rect1087"
       style="opacity:0.2;fill:url(#linearGradient1671);fill-opacity:1"
       d="m 385.57144,517.79797 h 12 l 2.99999,4.00003 h 15 v 1 h -15 l -2.99999,3.99997 h -12 z"
       sodipodi:nodetypes="ccccccccc" />
    <path
       style="fill:url(#linearGradient2053);fill-opacity:1;fill-rule:evenodd;stroke:none;stroke-width:1px;stroke-linecap:butt;stroke-linejoin:miter;stroke-opacity:1;opacity:0.3"
       d="m 385.57143,526.798 h 12 l 3,-4 h 15 l -1e-5,23 h -29.99999 z"
       id="path4186"
       inkscape:connector-curvature="0"
       sodipodi:nodetypes="ccccccc" />
    <path
       inkscape:connector-curvature="0"
       style="fill-opacity:0.235294"
       id="path4192"
       d="m 385.57143,544.798 v 1 h 0.51725 28.96551 0.51724 v -1 h -0.51724 -28.96551 z" />
    <path
       id="rect1087-3"
       style="opacity:0.2;fill:#000000"
       d="m 385.57143,517.798 h 12 l 2.99999,4.00003 h 15 v 1 h -15 l -2.99999,3.99997 h -12 z"
       sodipodi:nodetypes="ccccccccc" />
    <path
       sodipodi:nodetypes="cccccc"
       d="m 385.57143,526.798 v 1 h 13 l 2,-5 -3,4 z"
       id="path4224"
       style="fill:#ffffff;fill-opacity:0.235294;fill-rule:evenodd"
       inkscape:connector-curvature="0" />
    <path
       sodipodi:nodetypes="ccccccc"
       d="m 400.57143,522.798 -4,3 h -11 v 1 h 6.99999 5.00001 z"
       id="path4306-3"
       style="fill-opacity:0.235294;fill-rule:evenodd"
       inkscape:connector-curvature="0" />
    <path
       sodipodi:nodetypes="cccccc"
       inkscape:connector-curvature="0"
       style="fill:#ffffff;fill-opacity:0.235294;fill-rule:evenodd"
       id="path4204"
       d="m 397.57143,517.798 3,5 h 15 v -1 h -15 z" />
    <path
       inkscape:connector-curvature="0"
       style="fill:currentColor;fill-opacity:0.5"
       class="ColorScheme-Text"
       id="rect4184"
       d="M 16 13 C 14.337997 13 13 14.337997 13 16 L 13 18 L 12 18 L 12 23 L 20 23 L 20 18 L 19 18 L 19 16 C 19 14.337997 17.662003 13 16 13 z M 16 14 C 17.108 14 18 14.892 18 16 L 18 18 L 14 18 L 14 16 C 14 14.892 14.892 14 16 14 z M 13 19 L 14 19 L 18 19 L 19 19 L 19 22 L 13 22 L 13 19 z "
       transform="matrix(1 0 0 1 384.57143 515.798)" />
  </g>
</svg>

<?xml version="1.0" encoding="UTF-8" standalone="no"?>
<!-- Created with Inkscape (http://www.inkscape.org/) -->

<svg
   width="32"
   version="1.1"
   height="32"
   viewBox="0 0 32 32"
   id="svg2"
   inkscape:version="1.1.1 (3bf5ae0d25, 2021-09-20, custom)"
   sodipodi:docname="folder-locked.svg"
   xmlns:inkscape="http://www.inkscape.org/namespaces/inkscape"
   xmlns:sodipodi="http://sodipodi.sourceforge.net/DTD/sodipodi-0.dtd"
   xmlns="http://www.w3.org/2000/svg"
   xmlns:svg="http://www.w3.org/2000/svg"
   xmlns:rdf="http://www.w3.org/1999/02/22-rdf-syntax-ns#"
   xmlns:cc="http://creativecommons.org/ns#"
   xmlns:dc="http://purl.org/dc/elements/1.1/">
  <sodipodi:namedview
     pagecolor="#ffffff"
     bordercolor="#666666"
     borderopacity="1"
     objecttolerance="10"
     gridtolerance="10"
     guidetolerance="10"
     inkscape:pageopacity="0"
     inkscape:pageshadow="2"
     inkscape:window-width="1920"
     inkscape:window-height="1007"
     id="namedview17"
     showgrid="true"
     inkscape:zoom="11.313709"
     inkscape:cx="11.004349"
     inkscape:cy="12.065009"
     inkscape:window-x="0"
     inkscape:window-y="0"
     inkscape:window-maximized="1"
     inkscape:current-layer="layer1"
     inkscape:pagecheckerboard="0">
    <inkscape:grid
       type="xygrid"
       id="grid829" />
  </sodipodi:namedview>
  <defs
     id="defs5455">
    <style
       type="text/css"
       id="current-color-scheme">
      .ColorScheme-Text {
        color:#31363b;
      }
      .ColorScheme-Highlight {
        color:#3daee9;
      }
      </style>
    <linearGradient
       id="linearGradient4172-7-9">
      <stop
         style="stop-color:#4183d7"
         id="stop4174-9-8" />
      <stop
         offset="1"
         style="stop-color:#5b94df"
         id="stop4176-4-6" />
    </linearGradient>
  </defs>
  <metadata
     id="metadata5458">
    <rdf:RDF>
      <cc:Work
         rdf:about="">
        <dc:format>image/svg+xml</dc:format>
        <dc:type
           rdf:resource="http://purl.org/dc/dcmitype/StillImage" />
      </cc:Work>
    </rdf:RDF>
  </metadata>
  <g
     inkscape:label="Capa 1"
     inkscape:groupmode="layer"
     id="layer1"
     transform="translate(-384.57143,-515.798)">
    <path
       style="fill:currentColor;fill-opacity:1;fill-rule:evenodd;stroke:none;stroke-width:1px;stroke-linecap:butt;stroke-linejoin:miter;stroke-opacity:1"
       class="ColorScheme-Highlight"
       d="m 385.57143,517.798 h 12 l 3,4 h 15 v 24 h -30 z"
       id="path4182"
       inkscape:connector-curvature="0"
       sodipodi:nodetypes="ccccccc" />
    <path
       inkscape:connector-curvature="0"
       style="fill-opacity:0.235294"
       id="path4192"
       d="m 385.57143,544.798 v 1 h 0.51725 28.96551 0.51724 v -1 h -0.51724 -28.96551 z" />
    <path
       id="rect1087-3"
       style="opacity:0.3;fill:#000000"
       d="m 385.57143,517.798 h 12 l 2.99999,4.00003 h 15 v 1 h -15 l -2.99999,3.99997 h -12 z"
       sodipodi:nodetypes="ccccccccc" />
    <path
       sodipodi:nodetypes="cccccc"
       d="m 385.57143,526.798 v 1 h 13 l 2,-5 -3,4 z"
       id="path4224"
       style="fill:#ffffff;fill-opacity:0.235294;fill-rule:evenodd"
       inkscape:connector-curvature="0" />
    <path
       sodipodi:nodetypes="ccccccc"
       d="m 400.57143,522.798 -4,3 h -11 v 1 h 6.99999 5.00001 z"
       id="path4306-3"
       style="fill-opacity:0.235294;fill-rule:evenodd"
       inkscape:connector-curvature="0" />
    <path
       sodipodi:nodetypes="cccccc"
       inkscape:connector-curvature="0"
       style="fill:#ffffff;fill-opacity:0.235294;fill-rule:evenodd"
       id="path4204"
       d="m 397.57143,517.798 3,5 h 15 v -1 h -15 z" />
    <path
       inkscape:connector-curvature="0"
       style="fill:currentColor;fill-opacity:0.6"
       class="ColorScheme-Text"
       id="rect4184"
       d="m 16,13 c -1.662003,0 -3,1.337997 -3,3 v 2 h -1 v 5 h 8 v -5 h -1 v -2 c 0,-1.662003 -1.337997,-3 -3,-3 z m 0,1 c 1.108,0 2,0.892 2,2 v 2 h -4 v -2 c 0,-1.108 0.892,-2 2,-2 z m -3,5 h 1 4 1 v 3 h -6 z"
       transform="translate(384.57143,515.798)" />
  </g>
</svg>
